!!!!SEGMENT: pl-kk--kk-i-220--001_anonim--omni-die-dic-mariae.krn
!!!cenid: 16xx:775
!!!COM: Anonim
!!!COM-rismid: pe30004985
!!!CDT:
!!!CNT:
!!!OTL: Omni die dic Mariae
!!!PDT:
!!!AGN: Sacred
!!!SMS-siglum: PL-Kk
!!!SMS-shelfmark: Kk.I.220
!!!SMS-shelfwork: 001 W
!!!SMS-variant:
!!!SMS-altvar:
!!!NIFC-rismid: 1001143676
!!!URL-scan: http://repozytorium.nifc.pl/skany/pl-kk-nut--i-220
!!!ONB-nifc: UWAGA: w zbiorze 1. Omni die dic Mariae (I), 2. Omni die dic Mariae (II)
!!!key:
**kern	**text	**text
*Iempty	*	*
*I"[Basso]	*	*
*I'[B]	*	*
*clefF4	*	*
*k[]	*	*
*f:	*	*
*M3/2	*	*
=1	=1	=1
1C/	Om-	Ip-
*2\right	*	*
!LO:TX:t=P:problem:2\right:global	!	!
2En\	-ni	-sam
=2	=2	=2
1F\	Di-	co-
2E\	-e	-le
=3	=3	=3
1D\	dic	ut
2G\	Ma-	de
=4	=4	=4
1En\	-ri-	mo-
!LO:TX:t=P:problem:kreska na 2 linii [rozdzielacz słów / znak oddechu]	!	!
2C,/	-ae	-le
=5	=5	=5
1G\	me-	Cri-
2F#X\	-a	-mi-
=6	=6	=6
1G\	lau-	-num
2C/	-des	Te
=7	=7	=7
1D\	A-	li-
2D\	-ni-	-be-
=8	=8	=8
1.GG/	-ma	-ret
!!LO:LB:g=original
=9||	=9||	=9||
1En\	E-	Hanc
2E\	-jus	ap-
=10	=10	=10
1A\	Fe-	-pel-
2A\	-sta	-la
=11	=11	=11
1D\	e-	ne
2D\	-jus	pro-
=12	=12	=12
1G\	ge-	-cel-
2G\	-sta	-la
=13	=13	=13
1C/	co-	vi-
2C/	-le	-ti-
=14	=14	=14
(2.F\	de-	-o-
4G\)	.	.
2A\	-vo-	-rum
=15	=15	=15
2F\	-tiſ-	su-
2G\	.	-per-
2GG/	-si-	.
=16	=16	=16
1.C/	-ma	-et:
!!LO:LB:g=original
=17||	=17||	=17||
*M4/4	*	*
*met(c)	*	*
4F\	Con-	Haec
4F\	-tem-	per-
4En\	-pla-	-so-
4C/	-re	-na
=18	=18	=18
4c\	et	no-
4c\	mi-	-bis
4A\	-ra-	do-
4F\	-re	-na
=19	=19	=19
4B-X\	E-	con-
4G\	-jus	-tu-
4c\	cel-	-lit
4F\	-ſi-	Cae-
=20	=20	=20
4.C/	-tu-	-le-
8C/	-di-	-sti-
2F\	-nem,	-a
=21	=21	=21
4D/	dic	haec
4AA/	Fe-	Re-
4D/	-li-	-gi-
4D/	-cem	-na
=22	=22	=22
4A\	Ge-	nos
4E\	-ni-	di-
4AA/	-tri-	-vi-
4A\	-cem	-na
!!LO:LB:g=original
=23	=23	=23
4F\	dic	il-
4A\	be-	-lu-
4B-X\	-a-	-stra-
4F\	-tam	-vit
=24	=24	=24
4.c\	Vir-	gra-
8C/	-gi-	-ti-
2F\	-nem,	-a
=25	=25	=25
4C/	dic	il-
4En\	be-	-lu-
4F\	-a-	-stra-
4C/	-tam	-vit
=26	=26	=26
4.G\	Vir-	gra-
8GG/	-gi-	-ti-
!LO:TX:t=P:problem:oznaczenie metryczne 3/2 po kresce taktowej	!	!
!LO:TX:a:t=Da Capo	!	!
2C/	-nem	-a.
==	==	==
*-	*-	*-
!!!EED: Leszek Kubiak
!!!EST: 2021-02-19
!!!AIN: 1 empty
!!!ENC: Andrzej Kubiczek
!!!END: 2021-02-14
